talent/images/icons/instagram.svg

<svg width="48" height="48" viewBox="0 0 48 48" fill="none" xmlns="http://www.w3.org/2000/svg">
<g id="Combined Shape 2">
<path id="Combined Shape" fill-rule="evenodd" clip-rule="evenodd" d="M12 0H36C42.5994 0 48 5.40045 48 11.9997V36.0003C48 42.5978 42.5994 48 36 48H12C5.40059 48 0 42.5978 0 36.0003V11.9997C0 5.40045 5.40059 0 12 0ZM36 43.9999C40.4125 43.9999 43.9998 40.4102 43.9998 36.0003V11.9997C43.9998 7.58864 40.4125 4.0001 36 4.0001H12C7.58941 4.0001 4.0002 7.58864 4.0002 11.9997V36.0003C4.0002 40.4102 7.58941 43.9999 12 43.9999H36ZM40.002 10.9995C40.002 12.6564 38.6588 13.9995 37.002 13.9995C35.3451 13.9995 34.002 12.6564 34.002 10.9995C34.002 9.34272 35.3451 7.99961 37.002 7.99961C38.6588 7.99961 40.002 9.34272 40.002 10.9995ZM24 11.9997C17.3712 11.9997 12 17.3713 12 23.9994C12 30.625 17.3712 36.0003 24 36.0003C30.627 36.0003 36 30.625 36 23.9994C36 17.3713 30.627 11.9997 24 11.9997ZM24 32.0002C19.5821 32.0002 16.0002 28.4183 16.0002 23.9994C16.0002 19.5805 19.5821 15.9998 24 15.9998C28.4179 15.9998 31.9998 19.5805 31.9998 23.9994C31.9998 28.4183 28.4179 32.0002 24 32.0002Z" fill="white"/>
</g>
</svg>

<svg width="48" height="48" fill="none" xmlns="http://www.w3.org/2000/svg"><path fill-rule="evenodd" clip-rule="evenodd" d="M12 0h24c6.6 0 12 5.4 12 12v24c0 6.598-5.4 12-12 12H12C5.4 48 0 42.598 0 36V12C0 5.4 5.4 0 12 0zm24 44c4.413 0 8-3.59 8-8V12c0-4.411-3.587-8-8-8H12c-4.41 0-8 3.59-8 8v24c0 4.41 3.59 8 8 8h24zm4.002-33a3 3 0 11-6 0 3 3 0 016 0zM24 12c-6.629 0-12 5.371-12 12 0 6.625 5.371 12 12 12 6.627 0 12-5.375 12-12 0-6.629-5.373-12-12-12zm0 20a8 8 0 11.001-16A8 8 0 0124 32z" fill="#fff"/></svg>
